actions/48/edit-delete.svg

<?xml version="1.0" encoding="UTF-8" standalone="no"?>
<svg
   xmlns:dc="http://purl.org/dc/elements/1.1/"
   xmlns:cc="http://creativecommons.org/ns#"
   xmlns:rdf="http://www.w3.org/1999/02/22-rdf-syntax-ns#"
   xmlns:svg="http://www.w3.org/2000/svg"
   xmlns="http://www.w3.org/2000/svg"
   xmlns:xlink="http://www.w3.org/1999/xlink"
   version="1.1"
   width="48"
   height="48"
   id="svg3264">
  <defs
     id="defs3266">
    <linearGradient
       x1="71.204407"
       y1="6.2375584"
       x2="71.204407"
       y2="44.340794"
       id="linearGradient3403"
       xlink:href="#linearGradient4011"
       gradientUnits="userSpaceOnUse"
       gradientTransform="translate(-47.733515,-0.3572398)" />
    <linearGradient
       id="linearGradient4011">
      <stop
         id="stop4013"
         style="stop-color:#ffffff;stop-opacity:1"
         offset="0" />
      <stop
         id="stop4015"
         style="stop-color:#ffffff;stop-opacity:0.23529412"
         offset="0.507761" />
      <stop
         id="stop4017"
         style="stop-color:#ffffff;stop-opacity:0.15686275"
         offset="0.83456558" />
      <stop
         id="stop4019"
         style="stop-color:#ffffff;stop-opacity:0.39215687"
         offset="1" />
    </linearGradient>
    <linearGradient
       x1="24.481066"
       y1="5.0808945"
       x2="24.481066"
       y2="45.074459"
       id="linearGradient3217"
       xlink:href="#linearGradient3781-1"
       gradientUnits="userSpaceOnUse" />
    <linearGradient
       id="linearGradient3781-1">
      <stop
         id="stop3783-5"
         style="stop-color:#ffffff;stop-opacity:1"
         offset="0" />
      <stop
         id="stop3785-5"
         style="stop-color:#ffffff;stop-opacity:0"
         offset="1" />
    </linearGradient>
    <radialGradient
       cx="23.895569"
       cy="3.9900031"
       r="20.397499"
       fx="23.895569"
       fy="3.9900031"
       id="radialGradient3220"
       xlink:href="#linearGradient3242-6"
       gradientUnits="userSpaceOnUse"
       gradientTransform="matrix(0,2.2874593,-3.0194057,0,36.047437,-50.630156)" />
    <linearGradient
       id="linearGradient3242-6">
      <stop
         id="stop3244-3"
         style="stop-color:#f8b17e;stop-opacity:1"
         offset="0" />
      <stop
         id="stop3246-2"
         style="stop-color:#e35d4f;stop-opacity:1"
         offset="0.26238" />
      <stop
         id="stop3248-0"
         style="stop-color:#c6262e;stop-opacity:1"
         offset="0.66093999" />
      <stop
         id="stop3250-6"
         style="stop-color:#690b54;stop-opacity:1"
         offset="1" />
    </linearGradient>
    <linearGradient
       x1="18.379412"
       y1="44.980297"
       x2="18.379412"
       y2="3.0816143"
       id="linearGradient3222"
       xlink:href="#linearGradient2490-6"
       gradientUnits="userSpaceOnUse"
       gradientTransform="matrix(0.9584364,0,0,0.9584366,0.997525,1.9975255)" />
    <linearGradient
       id="linearGradient2490-6">
      <stop
         id="stop2492-1"
         style="stop-color:#791235;stop-opacity:1"
         offset="0" />
      <stop
         id="stop2494-0"
         style="stop-color:#dd3b27;stop-opacity:1"
         offset="1" />
    </linearGradient>
    <linearGradient
       id="linearGradient8838">
      <stop
         id="stop8840"
         style="stop-color:#000000;stop-opacity:1"
         offset="0" />
      <stop
         id="stop8842"
         style="stop-color:#000000;stop-opacity:0"
         offset="1" />
    </linearGradient>
    <radialGradient
       cx="62.625"
       cy="4.625"
       r="10.625"
       fx="62.625"
       fy="4.625"
       id="radialGradient3262"
       xlink:href="#linearGradient8838"
       gradientUnits="userSpaceOnUse"
       gradientTransform="matrix(2.1647059,0,0,0.7529402,-111.56471,36.517647)" />
  </defs>
  <metadata
     id="metadata3269">
    <rdf:RDF>
      <cc:Work
         rdf:about="">
        <dc:format>image/svg+xml</dc:format>
        <dc:type
           rdf:resource="http://purl.org/dc/dcmitype/StillImage" />
        <dc:title />
      </cc:Work>
    </rdf:RDF>
  </metadata>
  <g
     id="layer1">
    <path
       d="m 46.999997,40 c 0,4.418278 -10.297452,8 -23,8 -12.702548,0 -23.0000002,-3.581722 -23.0000002,-8 0,-4.418278 10.2974522,-8 23.0000002,-8 12.702548,0 23,3.581722 23,8 l 0,0 z"
       id="path8836"
       style="opacity:0.3;fill:url(#radialGradient3262);fill-opacity:1;fill-rule:evenodd;stroke:none;stroke-width:0.99999988;marker:none;visibility:visible;display:inline;overflow:visible" />
    <path
       d="M 24.000002,5.501809 C 13.241573,5.501809 4.501809,14.24157 4.501809,25 c 0,10.75843 8.739764,19.498195 19.498193,19.498192 10.758425,0 19.498199,-8.739762 19.498189,-19.498192 0,-10.75843 -8.739764,-19.498191 -19.498189,-19.498191 z m 0,6.259788 c 7.31428,0 13.2384,5.924122 13.2384,13.238403 0,3.069743 -1.063615,5.871916 -2.815408,8.116759 L 17.650361,13.378958 c 1.884452,-1.031095 4.049031,-1.617361 6.349641,-1.617361 z m -10.602705,5.331302 16.712738,19.647948 c -1.827916,0.952312 -3.905343,1.497556 -6.110033,1.497556 C 16.685721,38.238402 10.761597,32.314281 10.761597,25 c 0,-2.971425 0.984267,-5.698523 2.6357,-7.907101 z"
       id="path2555-6"
       style="fill:url(#radialGradient3220);fill-opacity:1;stroke:url(#linearGradient3222);stroke-width:1.003654;stroke-linecap:round;stroke-linejoin:round;stroke-miterlimit:4;stroke-opacity:1;stroke-dasharray:none;stroke-dashoffset:0" />
    <path
       d="M 17.049914,14.239243 33.752151,33.92599"
       id="path3270"
       style="opacity:0.4;fill:none;stroke:url(#linearGradient3217);stroke-width:1px;stroke-linecap:round;stroke-linejoin:miter;stroke-opacity:1" />
    <path
       d="M 42.500002,24.999344 C 42.500002,35.216942 34.21666,43.5 24.000235,43.5 13.782875,43.5 5.5000003,35.216848 5.5000003,24.999344 c 0,-10.217125 8.2828747,-18.4993438 18.5002347,-18.4993438 10.216425,0 18.499767,8.2822188 18.499767,18.4993438 l 0,0 z"
       id="path8655"
       style="opacity:0.5;color:#000000;fill:none;stroke:url(#linearGradient3403);stroke-width:1;stroke-linecap:round;stroke-linejoin:round;stroke-miterlimit:4;stroke-opacity:1;stroke-dasharray:none;stroke-dashoffset:0;marker:none;visibility:visible;display:inline;overflow:visible;enable-background:accumulate" />
  </g>
</svg>

<svg xmlns="http://www.w3.org/2000/svg" xmlns:xlink="http://www.w3.org/1999/xlink" viewBox="0 0 48 48"><defs><linearGradient x1="71.204" y1="6.238" x2="71.204" y2="44.341" id="j" xlink:href="#a" gradientUnits="userSpaceOnUse" gradientTransform="translate(-47.734 -.357)"/><linearGradient id="a"><stop offset="0" stop-color="#fff"/><stop offset=".508" stop-color="#fff" stop-opacity=".235"/><stop offset=".835" stop-color="#fff" stop-opacity=".157"/><stop offset="1" stop-color="#fff" stop-opacity=".392"/></linearGradient><linearGradient x1="24.481" y1="5.081" x2="24.481" y2="45.074" id="i" xlink:href="#b" gradientUnits="userSpaceOnUse"/><linearGradient id="b"><stop offset="0" stop-color="#fff"/><stop offset="1" stop-color="#fff" stop-opacity="0"/></linearGradient><radialGradient cx="23.896" cy="3.99" r="20.397" fx="23.896" fy="3.99" id="g" xlink:href="#c" gradientUnits="userSpaceOnUse" gradientTransform="matrix(0 2.28746 -3.0194 0 36.047 -50.63)"/><linearGradient id="c"><stop offset="0" stop-color="#f8b17e"/><stop offset=".262" stop-color="#e35d4f"/><stop offset=".661" stop-color="#c6262e"/><stop offset="1" stop-color="#690b54"/></linearGradient><linearGradient x1="18.379" y1="44.98" x2="18.379" y2="3.082" id="h" xlink:href="#d" gradientUnits="userSpaceOnUse" gradientTransform="translate(.998 1.998) scale(.95844)"/><linearGradient id="d"><stop offset="0" stop-color="#791235"/><stop offset="1" stop-color="#dd3b27"/></linearGradient><linearGradient id="e"><stop offset="0"/><stop offset="1" stop-opacity="0"/></linearGradient><radialGradient cx="62.625" cy="4.625" r="10.625" fx="62.625" fy="4.625" id="f" xlink:href="#e" gradientUnits="userSpaceOnUse" gradientTransform="matrix(2.1647 0 0 .75294 -111.565 36.518)"/></defs><path d="M47 40c0 4.418-10.297 8-23 8S1 44.418 1 40s10.297-8 23-8 23 3.582 23 8z" opacity=".3" fill="url(#f)" fill-rule="evenodd" overflow="visible"/><path d="M24 5.502C13.242 5.502 4.502 14.242 4.502 25c0 10.758 8.74 19.498 19.498 19.498 10.758 0 19.498-8.74 19.498-19.498 0-10.758-8.74-19.498-19.498-19.498zm0 6.26c7.314 0 13.238 5.924 13.238 13.238 0 3.07-1.063 5.872-2.815 8.117L17.65 13.38A13.19 13.19 0 0 1 24 11.76zm-10.603 5.33l16.713 19.65A13.188 13.188 0 0 1 24 38.237c-7.314 0-13.238-5.924-13.238-13.238 0-2.97.984-5.7 2.635-7.91z" fill="url(#g)" stroke="url(#h)" stroke-width="1.004" stroke-linecap="round" stroke-linejoin="round"/><path d="M17.05 14.24l16.702 19.686" opacity=".4" fill="none" stroke="url(#i)" stroke-linecap="round"/><path d="M42.5 25c0 10.217-8.283 18.5-18.5 18.5S5.5 35.217 5.5 25C5.5 14.78 13.783 6.5 24 6.5S42.5 14.782 42.5 25z" opacity=".5" color="#000" fill="none" stroke="url(#j)" stroke-linecap="round" stroke-linejoin="round" overflow="visible"/></svg>
